X:50
T:Kiss My Lady. LIT.050
M:2/4
Q:1/4=120
L:1/8
B:Wm. Litten MS, 1802
Z:Village Music Project 2017 Anne Wride
K:D
A | d3f | c3g | fa a/g/f/e/ | d/c/d/e/ dA |
d3f | c3g | fa a/g/f/e/ | ddd :|
|: d | da fa | db gb | eg eg | fa df |
dd' af | bg eg | fa a/g/f/e/ | ddd :|
|: A | AG FG | AA Af | gg ge | ff fd |
c2 ce d2 da | ba gf | ee ef |
Gg ge | Df fd | Gg ge | Df fd |
bb bg | ab c'd' | c'/b/a/g/ fe | ddd :|

